data/playwrite-ng-modern.svg

<svg width="159.1" height="27.048" viewBox="0 0 159.1 27.048" xmlns="http://www.w3.org/2000/svg"><path transform="translate(0 19.992) scale(.014 -.014)" d="m187-14q-44 0-44 28v956q0 14 11.5 21t33.5 7h212q109 0 183-25t112-80 38-145q0-84-31-144t-82-98.5-113.5-61-126.5-32.5q-42-6-80-9t-69-3v-386q0-14-11-21t-33-7zm44 493q21 0 45.5 1.5t50.5 4 53 6.5q68 11 128 39.5t97.5 81 37.5 135.5q0 62-27.5 99t-82 54.5-133.5 17.5h-169z"/><path transform="translate(10.878 19.992) scale(.014 -.014)" d="m193-17q-51 0-74.5 27t-23.5 78v901q0 13 10.5 19.5t31.5 6.5q22 0 33-6.5t11-19.5v-890q0-22 8-31t21-9q10 0 17 3.5t14 10.5 14 15q7 7 16 5.5t19-10.5q7-7 10.5-16.5t-1.5-17.5q-11-21-28-35.5t-37-22.5-41-8z"/><path transform="translate(15.064 19.992) scale(.014 -.014)" d="m250-17q-55 0-97.5 28t-66 83-23.5 138q0 52 9.5 96.5t28.5 80 46 60 62 37.5 78 13q32 0 65-9.5t63-26.5v4q0 14 11 21t33 7 32.5-6.5 10.5-20.5v-389q0-14 3.5-23t10-13 14.5-4q10 0 16.5 3t13 9.5 15.5 16.5q6 7 15 5.5t19-8.5q10-9 12.5-19.5t-2.5-19.5q-11-19-27.5-33t-36.5-22-42-8q-23 0-40 5.5t-29.5 17-18.5 28-9 37.5q0 5-0.5 12t-0.5 15q-22-43-49-68t-56.5-36-59.5-11zm-99 252q0-52 12-91t37-60 63-21q31 0 59 17t52 51.5 41 85.5v192q-31 18-59.5 24.5t-58.5 6.5q-27 0-49.5-8t-40.5-24.5-30.5-41-19-57-6.5-74.5z"/><path transform="translate(23.772 19.992) scale(.014 -.014)" d="m260-17q-53 0-90 19t-56.5 58.5-19.5 100.5v328q0 13 10.5 19.5t31.5 6.5q22 0 33-6.5t11-19.5v-326q0-34 10-57t30-34.5 51-11.5q30 0 55.5 13t46 37 36 56.5 25.5 70.5v252q0 13 10.5 19.5t32.5 6.5q21 0 32-6.5t11-19.5v-773q0-78-25.5-130.5t-73.5-78.5-115-26q-43 0-80 12t-64.5 32-45.5 43q-11 13-9.5 28.5t21.5 27.5q18 11 28 10t24-15q32-31 62.5-45.5t70.5-14.5 66.5 16 40.5 51 14 92v386q-14-30-33.5-53t-42.5-38-47.5-22.5-50.5-7.5z"/><path transform="translate(32.564 19.992) scale(.014 -.014)" d="m229-15q-22 0-32 7t-15 19l-157 454q-7 20 4.5 35t39.5 15q15 0 24-6t13-20l124-380 132 380q5 14 14.5 20t25.5 6q15 0 25-6t14-20l135-380 123 380q5 14 14 20t24 6q29 0 40-14t3-36l-159-454q-4-12-14-19t-32-7-30.5 7.5-12.5 18.5l-130 367-127-367q-4-11-14.5-18.5t-31.5-7.5z"/><path transform="translate(43.82 19.992) scale(.014 -.014)" d="m136-15q-21 0-31.5 6.5t-10.5 19.5v478q0 13 10.5 19.5t31.5 6.5q22 0 33-6.5t11-19.5v-90q16 30 35 52.5t40 37.5 42.5 22.5 43.5 7.5q24 0 46.5-7.5t33.5-17.5q10-8 11.5-18t-8.5-28q-8-15-19-19.5t-25 0.5q-12 4-24 7t-28 3q-21 0-42.5-11t-41-33-36-54-28.5-72v-258q0-13-11-19.5t-33-6.5z"/><path transform="translate(50.176 19.992) scale(.014 -.014)" d="m192-17q-51 0-74.5 27t-23.5 78v401q0 13 10.5 19.5t31.5 6.5q22 0 33-6.5t11-19.5v-390q0-22 8-31t21-9q10 0 17 4t13.5 10.5 14.5 15.5q5 6 15.5 3.5t17.5-9.5q10-8 12-18t-3-18q-11-20-27.5-34t-36-22-40.5-8zm-56 686q-28 0-42 15.5t-14 46.5q0 32 14 48t42 16 41.5-16 13.5-48q2-31-12.5-46.5t-42.5-15.5z"/><path transform="translate(54.376 19.992) scale(.014 -.014)" d="m239-17q-40 0-67 15.5t-40.5 44.5-13.5 70v307h-77q-15 0-21.5 9t-6.5 31q0 23 6.5 31.5t21.5 8.5h77v204q0 13 10.5 19.5t32.5 6.5 33-6.5 11-19.5v-204h126q15 0 21.5-8.5t6.5-31.5q0-22-6.5-31t-21.5-9h-126v-298q0-34 9.5-48.5t32.5-14.5q22 0 39 12t35 33q10 11 20 9t20-10q13-9 14.5-19.5t-3.5-19.5q-16-29-37.5-47t-45.5-26-50-8z"/><path transform="translate(59.808 19.992) scale(.014 -.014)" d="m288-19q-75 0-125 33t-75 88.5-25 124.5q0 65 18.5 118.5t52 92.5 80.5 60 104 21q47 0 83-14.5t56.5-43.5 20.5-74q0-38-17-69t-47.5-55-72-41-92-26.5-106.5-13.5l-1 70q33 2 68 8t67 16.5 57 25.5 39.5 34.5 14.5 43.5q0 32-21.5 45.5t-56.5 13.5q-33 0-61.5-13.5t-50.5-39.5-34.5-62-12.5-81q0-56 17-96.5t48.5-63 75.5-22.5q31 0 53 9t40.5 26 39.5 39q14 15 26.5 14.5t26.5-11.5 17-23-6-25q-26-39-60-63t-70-35-71-11z"/><path transform="translate(71.372 19.992) scale(.014 -.014)" d="m187-14q-44 0-44 28v974q0 14 11 20.5t33 6.5q18 0 29.5-6.5t20.5-20.5l517-814v814q0 14 11 20.5t33 6.5q44 0 44-27v-974q0-14-11-21t-32-7q-16 0-25 5t-20 23l-523 824v-824q0-14-11-21t-33-7z"/><path transform="translate(85.162 19.992) scale(.014 -.014)" d="m442-17q-79 0-143 33t-110.5 95-71.5 150-25 197q0 81 15 154.5t42 135.5 66.5 111 88.5 84 107.5 53.5 123.5 18.5q60 0 112.5-13.5t99-43.5 89.5-79q11-11 9.5-22.5t-16.5-26.5q-15-14-26.5-12.5t-24.5 11.5q-39 37-78.5 59.5t-80.5 32-85 9.5q-52 0-98-15.5t-85-44.5-70-71-52-94.5-32.5-114.5-11.5-131q0-91 18.5-163t52.5-123 82.5-78 107.5-27q68 0 124 36.5t99 99 71.5 141 42.5 161.5q0 14 11 20.5t33 6.5q44 0 44-27v-491q0-13-11-20t-33-7q-44 0-44 27v250q-27-67-62.5-119t-79-88.5-94-55.5-105.5-19z"/><path transform="translate(102.96 19.992) scale(.014 -.014)" d="m187-14q-44 0-44 28v974q0 14 11 20.5t33 6.5q20 0 28.5-7.5t15.5-19.5l352-629 352 629q6 12 15 19.5t28 7.5q44 0 44-27v-974q0-14-11-21t-33-7q-43 0-43 28v803l-306-544q-7-13-16.5-17.5t-28.5-4.5-29.5 3.5-18.5 17.5l-305 545v-803q0-14-11-21t-33-7z"/><path transform="translate(119.27 19.992) scale(.014 -.014)" d="m295-19q-67 0-119.5 34t-82.5 94.5-30 140.5q0 59 17 108t48.5 85 73.5 56 93 20q67 0 119-34.5t82-95 30-138.5q0-47-11-88t-31.5-74.5-49-57.5-64-37-75.5-13zm0 80q33 0 59 13.5t45 38.5 29 60 10 78q0 57-17.5 99.5t-49.5 65.5-76 23q-32 0-59-13t-46-38.5-29-60-10-77.5q0-57 18-99.5t50-66 76-23.5z"/><path transform="translate(127.5 19.992) scale(.014 -.014)" d="m251-17q-56 0-98 28t-66 83-24 138q0 52 10 96.5t28.5 80 46 60 63.5 37.5 79 13q31 0 64.5-8.5t63.5-25.5v504q0 13 11 19.5t32 6.5q22 0 32.5-6.5t10.5-19.5v-890q0-22 7.5-31t21.5-9q8 0 15.5 3.5t14.5 10 15 16.5q7 6 16 3.5t18-9.5q10-8 12.5-18t-3.5-18q-11-20-27.5-34t-36.5-22-42-8q-36 0-57 14t-30 36-9 48q0 5 0 9.5t0 9.5q-24-45-51.5-70.5t-57.5-36-59-10.5zm-100 252q0-51 12-90t37-60.5 63-21.5q32 0 60 16t52.5 50.5 42.5 91.5v184q-31 20-61 27.5t-60 7.5q-27 0-49.5-8t-40.5-24.5-30.5-41-19-57-6.5-74.5z"/><path transform="translate(136.33 19.992) scale(.014 -.014)" d="m288-19q-75 0-125 33t-75 88.5-25 124.5q0 65 18.5 118.5t52 92.5 80.5 60 104 21q47 0 83-14.5t56.5-43.5 20.5-74q0-38-17-69t-47.5-55-72-41-92-26.5-106.5-13.5l-1 70q33 2 68 8t67 16.5 57 25.5 39.5 34.5 14.5 43.5q0 32-21.5 45.5t-56.5 13.5q-33 0-61.5-13.5t-50.5-39.5-34.5-62-12.5-81q0-56 17-96.5t48.5-63 75.5-22.5q31 0 53 9t40.5 26 39.5 39q14 15 26.5 14.5t26.5-11.5 17-23-6-25q-26-39-60-63t-70-35-71-11z"/><path transform="translate(143.7 19.992) scale(.014 -.014)" d="m136-15q-21 0-31.5 6.5t-10.5 19.5v478q0 13 10.5 19.5t31.5 6.5q22 0 33-6.5t11-19.5v-90q16 30 35 52.5t40 37.5 42.5 22.5 43.5 7.5q24 0 46.5-7.5t33.5-17.5q10-8 11.5-18t-8.5-28q-8-15-19-19.5t-25 0.5q-12 4-24 7t-28 3q-21 0-42.5-11t-41-33-36-54-28.5-72v-258q0-13-11-19.5t-33-6.5z"/><path transform="translate(150.05 19.992) scale(.014 -.014)" d="m537-17q-26 0-44.5 7t-30.5 20-17.5 33-5.5 45v246q0 34-9.5 57.5t-29.5 35.5-54 12q-25 0-49-10.5t-46-31.5-40-54-31-78v-254q0-13-11-19.5t-33-6.5q-21 0-31.5 6.5t-10.5 19.5v478q0 13 10.5 19.5t31.5 6.5q22 0 33-6.5t11-19.5v-91q16 30 35.5 53t43 38 48 22.5 51.5 7.5q49 0 86.5-17.5t59-56 21.5-102.5v-244q0-14 3.5-23t10-13 15.5-4 16 3.5 14 10.5 15 15q7 7 16.5 4.5t18.5-9.5q9-9 11-18.5t-4-18.5q-11-20-27.5-34t-36-21.5-40.5-7.5z"/></svg>

<?xml version="1.0" encoding="utf-8" ?>
<svg baseProfile="tiny" height="100%" version="1.2" width="100%" xmlns="http://www.w3.org/2000/svg" xmlns:ev="http://www.w3.org/2001/xml-events" xmlns:xlink="http://www.w3.org/1999/xlink"><defs /><g><path d="M187 -14Q143 -14 143 14V970Q143 984 154.5 991.0Q166 998 188 998H400Q509 998 583.0 973.0Q657 948 695.0 893.0Q733 838 733 748Q733 664 702.0 604.0Q671 544 620.0 505.5Q569 467 506.5 444.5Q444 422 380 412Q338 406 300.0 403.0Q262 400 231 400V14Q231 0 220.0 -7.0Q209 -14 187 -14ZM231 479Q252 479 276.5 480.5Q301 482 327.0 484.5Q353 487 380 491Q448 502 508.0 530.5Q568 559 605.5 611.5Q643 664 643 747Q643 809 615.5 846.0Q588 883 533.5 900.5Q479 918 400 918H231Z" transform="translate(0.0, 72) scale(0.072, -0.072)" /><path d="M193 -17Q142 -17 118.5 10.0Q95 37 95 88V989Q95 1002 105.5 1008.5Q116 1015 137 1015Q159 1015 170.0 1008.5Q181 1002 181 989V99Q181 77 189.0 68.0Q197 59 210 59Q220 59 227.0 62.5Q234 66 241.0 73.0Q248 80 255 88Q262 95 271.0 93.5Q280 92 290 83Q297 76 300.5 66.5Q304 57 299 49Q288 28 271.0 13.5Q254 -1 234.0 -9.0Q214 -17 193 -17Z" transform="translate(55.943999999999996, 72) scale(0.072, -0.072)" /><path d="M250 -17Q195 -17 152.5 11.0Q110 39 86.5 94.0Q63 149 63 232Q63 284 72.5 328.5Q82 373 101.0 408.5Q120 444 147.0 468.5Q174 493 209.0 506.0Q244 519 287 519Q319 519 352.0 509.5Q385 500 415 483V487Q415 501 426.0 508.0Q437 515 459 515Q481 515 491.5 508.5Q502 502 502 488V99Q502 85 505.5 76.0Q509 67 515.5 63.0Q522 59 530 59Q540 59 546.5 62.0Q553 65 559.5 71.5Q566 78 575 88Q581 95 590.0 93.5Q599 92 609 85Q619 76 621.5 65.5Q624 55 619 46Q608 27 591.5 13.0Q575 -1 555.0 -9.0Q535 -17 513 -17Q490 -17 473.0 -11.5Q456 -6 443.5 5.5Q431 17 425.0 33.5Q419 50 416 71Q416 76 415.5 83.0Q415 90 415 98Q393 55 366.0 30.0Q339 5 309.5 -6.0Q280 -17 250 -17ZM151 235Q151 183 163.0 144.0Q175 105 200.0 84.0Q225 63 263 63Q294 63 322.0 80.0Q350 97 374.0 131.5Q398 166 415 217V409Q384 427 355.5 433.5Q327 440 297 440Q270 440 247.5 432.0Q225 424 207.0 407.5Q189 391 176.5 366.5Q164 342 157.5 309.5Q151 277 151 235Z" transform="translate(77.472, 72) scale(0.072, -0.072)" /><path d="M260 -17Q207 -17 170.0 2.0Q133 21 113.5 60.5Q94 100 94 161V489Q94 502 104.5 508.5Q115 515 136 515Q158 515 169.0 508.5Q180 502 180 489V163Q180 129 190.0 106.0Q200 83 220.0 71.5Q240 60 271 60Q301 60 326.5 73.0Q352 86 372.5 110.0Q393 134 408.5 166.5Q424 199 434 237V489Q434 502 444.5 508.5Q455 515 477 515Q498 515 509.0 508.5Q520 502 520 489V-284Q520 -362 494.5 -414.5Q469 -467 421.0 -493.0Q373 -519 306 -519Q263 -519 226.0 -507.0Q189 -495 161.5 -475.0Q134 -455 116 -432Q105 -419 106.5 -403.5Q108 -388 128 -376Q146 -365 156.0 -366.0Q166 -367 180 -381Q212 -412 242.5 -426.5Q273 -441 313 -441Q353 -441 379.5 -425.0Q406 -409 420.0 -374.0Q434 -339 434 -282V104Q420 74 400.5 51.0Q381 28 358.0 13.0Q335 -2 310.5 -9.5Q286 -17 260 -17Z" transform="translate(122.256, 72) scale(0.072, -0.072)" /><path d="M229 -15Q207 -15 197.0 -8.0Q187 -1 182 11L25 465Q18 485 29.5 500.0Q41 515 69 515Q84 515 93.0 509.0Q102 503 106 489L230 109L362 489Q367 503 376.5 509.0Q386 515 402 515Q417 515 427.0 509.0Q437 503 441 489L576 109L699 489Q704 503 713.0 509.0Q722 515 737 515Q766 515 777.0 501.0Q788 487 780 465L621 11Q617 -1 607.0 -8.0Q597 -15 575 -15Q553 -15 544.5 -7.5Q536 0 532 11L402 378L275 11Q271 0 260.5 -7.5Q250 -15 229 -15Z" transform="translate(167.47199999999998, 72) scale(0.072, -0.072)" /><path d="M136 -15Q115 -15 104.5 -8.5Q94 -2 94 11V489Q94 502 104.5 508.5Q115 515 136 515Q158 515 169.0 508.5Q180 502 180 489V399Q196 429 215.0 451.5Q234 474 255.0 489.0Q276 504 297.5 511.5Q319 519 341 519Q365 519 387.5 511.5Q410 504 421 494Q431 486 432.5 476.0Q434 466 424 448Q416 433 405.0 428.5Q394 424 380 429Q368 433 356.0 436.0Q344 439 328 439Q307 439 285.5 428.0Q264 417 244.5 395.0Q225 373 208.5 341.0Q192 309 180 269V11Q180 -2 169.0 -8.5Q158 -15 136 -15Z" transform="translate(225.35999999999999, 72) scale(0.072, -0.072)" /><path d="M192 -17Q141 -17 117.5 10.0Q94 37 94 88V489Q94 502 104.5 508.5Q115 515 136 515Q158 515 169.0 508.5Q180 502 180 489V99Q180 77 188.0 68.0Q196 59 209 59Q219 59 226.0 63.0Q233 67 239.5 73.5Q246 80 254 89Q259 95 269.5 92.5Q280 90 287 83Q297 75 299.0 65.0Q301 55 296 47Q285 27 268.5 13.0Q252 -1 232.5 -9.0Q213 -17 192 -17ZM136 669Q108 669 94.0 684.5Q80 700 80 731Q80 763 94.0 779.0Q108 795 136 795Q164 795 177.5 779.0Q191 763 191 731Q193 700 178.5 684.5Q164 669 136 669Z" transform="translate(258.048, 72) scale(0.072, -0.072)" /><path d="M239 -17Q199 -17 172.0 -1.5Q145 14 131.5 43.0Q118 72 118 113V420H41Q26 420 19.5 429.0Q13 438 13 460Q13 483 19.5 491.5Q26 500 41 500H118V704Q118 717 128.5 723.5Q139 730 161 730Q183 730 194.0 723.5Q205 717 205 704V500H331Q346 500 352.5 491.5Q359 483 359 460Q359 438 352.5 429.0Q346 420 331 420H205V122Q205 88 214.5 73.5Q224 59 247 59Q269 59 286.0 71.0Q303 83 321 104Q331 115 341.0 113.0Q351 111 361 103Q374 94 375.5 83.5Q377 73 372 64Q356 35 334.5 17.0Q313 -1 289.0 -9.0Q265 -17 239 -17Z" transform="translate(279.648, 72) scale(0.072, -0.072)" /><path d="M288 -19Q213 -19 163.0 14.0Q113 47 88.0 102.5Q63 158 63 227Q63 292 81.5 345.5Q100 399 133.5 438.0Q167 477 214.0 498.0Q261 519 318 519Q365 519 401.0 504.5Q437 490 457.5 461.0Q478 432 478 387Q478 349 461.0 318.0Q444 287 413.5 263.0Q383 239 341.5 222.0Q300 205 249.5 195.5Q199 186 143 182L142 252Q175 254 210.0 260.0Q245 266 277.0 276.5Q309 287 334.0 302.0Q359 317 373.5 336.5Q388 356 388 380Q388 412 366.5 425.5Q345 439 310 439Q277 439 248.5 425.5Q220 412 198.0 386.0Q176 360 163.5 324.0Q151 288 151 243Q151 187 168.0 146.5Q185 106 216.5 83.5Q248 61 292 61Q323 61 345.0 70.0Q367 79 385.5 96.0Q404 113 425 135Q439 150 451.5 149.5Q464 149 478 138Q492 127 495.0 115.0Q498 103 489 90Q463 51 429.0 27.0Q395 3 359.0 -8.0Q323 -19 288 -19Z" transform="translate(307.584, 72) scale(0.072, -0.072)" /><path d="M187 -14Q143 -14 143 14V988Q143 1002 154.0 1008.5Q165 1015 187 1015Q205 1015 216.5 1008.5Q228 1002 237 988L754 174V988Q754 1002 765.0 1008.5Q776 1015 798 1015Q842 1015 842 988V14Q842 0 831.0 -7.0Q820 -14 799 -14Q783 -14 774.0 -9.0Q765 -4 754 14L231 838V14Q231 0 220.0 -7.0Q209 -14 187 -14Z" transform="translate(367.05600000000004, 72) scale(0.072, -0.072)" /><path d="M442 -17Q363 -17 299.0 16.0Q235 49 188.5 111.0Q142 173 117.0 261.0Q92 349 92 458Q92 539 107.0 612.5Q122 686 149.0 748.0Q176 810 215.5 859.0Q255 908 304.0 943.0Q353 978 411.5 996.5Q470 1015 535 1015Q595 1015 647.5 1001.5Q700 988 746.5 958.0Q793 928 836 879Q847 868 845.5 856.5Q844 845 829 830Q814 816 802.5 817.5Q791 819 778 829Q739 866 699.5 888.5Q660 911 619.0 920.5Q578 930 534 930Q482 930 436.0 914.5Q390 899 351.0 870.0Q312 841 281.0 799.0Q250 757 229.0 704.5Q208 652 196.5 590.0Q185 528 185 459Q185 368 203.5 296.0Q222 224 256.0 173.0Q290 122 338.5 95.0Q387 68 446 68Q514 68 570.0 104.5Q626 141 669.0 203.5Q712 266 740.5 344.5Q769 423 783 506Q783 520 794.0 526.5Q805 533 827 533Q871 533 871 506V15Q871 2 860.0 -5.0Q849 -12 827 -12Q783 -12 783 15V265Q756 198 720.5 146.0Q685 94 641.5 57.5Q598 21 547.5 2.0Q497 -17 442 -17Z" transform="translate(437.97600000000006, 72) scale(0.072, -0.072)" /><path d="M187 -14Q143 -14 143 14V988Q143 1002 154.0 1008.5Q165 1015 187 1015Q207 1015 215.5 1007.5Q224 1000 231 988L583 359L935 988Q941 1000 950.0 1007.5Q959 1015 978 1015Q1022 1015 1022 988V14Q1022 0 1011.0 -7.0Q1000 -14 978 -14Q935 -14 935 14V817L629 273Q622 260 612.5 255.5Q603 251 584 251Q565 251 554.5 254.5Q544 258 536 272L231 817V14Q231 0 220.0 -7.0Q209 -14 187 -14Z" transform="translate(529.488, 72) scale(0.072, -0.072)" /><path d="M295 -19Q228 -19 175.5 15.0Q123 49 93.0 109.5Q63 170 63 250Q63 309 80.0 358.0Q97 407 128.5 443.0Q160 479 202.0 499.0Q244 519 295 519Q362 519 414.0 484.5Q466 450 496.0 389.5Q526 329 526 251Q526 204 515.0 163.0Q504 122 483.5 88.5Q463 55 434.5 31.0Q406 7 370.5 -6.0Q335 -19 295 -19ZM295 61Q328 61 354.0 74.5Q380 88 399.0 113.0Q418 138 428.0 173.0Q438 208 438 251Q438 308 420.5 350.5Q403 393 371.0 416.0Q339 439 295 439Q263 439 236.0 426.0Q209 413 190.0 387.5Q171 362 161.0 327.5Q151 293 151 250Q151 193 169.0 150.5Q187 108 219.0 84.5Q251 61 295 61Z" transform="translate(613.368, 72) scale(0.072, -0.072)" /><path d="M251 -17Q195 -17 153.0 11.0Q111 39 87.0 94.0Q63 149 63 232Q63 284 73.0 328.5Q83 373 101.5 408.5Q120 444 147.5 468.5Q175 493 211.0 506.0Q247 519 290 519Q321 519 354.5 510.5Q388 502 418 485V989Q418 1002 429.0 1008.5Q440 1015 461 1015Q483 1015 493.5 1008.5Q504 1002 504 989V99Q504 77 511.5 68.0Q519 59 533 59Q541 59 548.5 62.5Q556 66 563.0 72.5Q570 79 578 89Q585 95 594.0 92.5Q603 90 612 83Q622 75 624.5 65.0Q627 55 621 47Q610 27 593.5 13.0Q577 -1 557.0 -9.0Q537 -17 515 -17Q479 -17 458.0 -3.0Q437 11 428.0 33.0Q419 55 419 81Q419 86 419.0 90.5Q419 95 419 100Q395 55 367.5 29.5Q340 4 310.0 -6.5Q280 -17 251 -17ZM151 235Q151 184 163.0 145.0Q175 106 200.0 84.5Q225 63 263 63Q295 63 323.0 79.0Q351 95 375.5 129.5Q400 164 418 221V405Q387 425 357.0 432.5Q327 440 297 440Q270 440 247.5 432.0Q225 424 207.0 407.5Q189 391 176.5 366.5Q164 342 157.5 309.5Q151 277 151 235Z" transform="translate(655.7040000000001, 72) scale(0.072, -0.072)" /><path d="M288 -19Q213 -19 163.0 14.0Q113 47 88.0 102.5Q63 158 63 227Q63 292 81.5 345.5Q100 399 133.5 438.0Q167 477 214.0 498.0Q261 519 318 519Q365 519 401.0 504.5Q437 490 457.5 461.0Q478 432 478 387Q478 349 461.0 318.0Q444 287 413.5 263.0Q383 239 341.5 222.0Q300 205 249.5 195.5Q199 186 143 182L142 252Q175 254 210.0 260.0Q245 266 277.0 276.5Q309 287 334.0 302.0Q359 317 373.5 336.5Q388 356 388 380Q388 412 366.5 425.5Q345 439 310 439Q277 439 248.5 425.5Q220 412 198.0 386.0Q176 360 163.5 324.0Q151 288 151 243Q151 187 168.0 146.5Q185 106 216.5 83.5Q248 61 292 61Q323 61 345.0 70.0Q367 79 385.5 96.0Q404 113 425 135Q439 150 451.5 149.5Q464 149 478 138Q492 127 495.0 115.0Q498 103 489 90Q463 51 429.0 27.0Q395 3 359.0 -8.0Q323 -19 288 -19Z" transform="translate(701.1360000000001, 72) scale(0.072, -0.072)" /><path d="M136 -15Q115 -15 104.5 -8.5Q94 -2 94 11V489Q94 502 104.5 508.5Q115 515 136 515Q158 515 169.0 508.5Q180 502 180 489V399Q196 429 215.0 451.5Q234 474 255.0 489.0Q276 504 297.5 511.5Q319 519 341 519Q365 519 387.5 511.5Q410 504 421 494Q431 486 432.5 476.0Q434 466 424 448Q416 433 405.0 428.5Q394 424 380 429Q368 433 356.0 436.0Q344 439 328 439Q307 439 285.5 428.0Q264 417 244.5 395.0Q225 373 208.5 341.0Q192 309 180 269V11Q180 -2 169.0 -8.5Q158 -15 136 -15Z" transform="translate(739.008, 72) scale(0.072, -0.072)" /><path d="M537 -17Q511 -17 492.5 -10.0Q474 -3 462.0 10.0Q450 23 444.5 43.0Q439 63 439 88V334Q439 368 429.5 391.5Q420 415 400.0 427.0Q380 439 346 439Q321 439 297.0 428.5Q273 418 251.0 397.0Q229 376 211.0 343.0Q193 310 180 265V11Q180 -2 169.0 -8.5Q158 -15 136 -15Q115 -15 104.5 -8.5Q94 -2 94 11V489Q94 502 104.5 508.5Q115 515 136 515Q158 515 169.0 508.5Q180 502 180 489V398Q196 428 215.5 451.0Q235 474 258.5 489.0Q282 504 306.5 511.5Q331 519 358 519Q407 519 444.5 501.5Q482 484 503.5 445.5Q525 407 525 343V99Q525 85 528.5 76.0Q532 67 538.5 63.0Q545 59 554 59Q563 59 570.0 62.5Q577 66 584.0 73.0Q591 80 599 88Q606 95 615.5 92.5Q625 90 634 83Q643 74 645.0 64.5Q647 55 641 46Q630 26 613.5 12.0Q597 -2 577.5 -9.5Q558 -17 537 -17Z" transform="translate(771.696, 72) scale(0.072, -0.072)" /></g></svg>
